assets/Lipstick/Flat/lipstick_flat.svg

<svg width="32" height="32" viewBox="0 0 32 32" fill="none" xmlns="http://www.w3.org/2000/svg">
<path d="M22.1501 20.3838H11.1401L11.1201 4.3538C11.1201 2.7538 12.1401 1.8938 13.2901 1.8938C17.5401 1.8938 22.1501 7.9438 22.1501 11.3338V20.3838V20.3838Z" fill="#F70A8D"/>
<path d="M21.5034 12.9551C22.9655 11.6158 21.9913 8.1728 19.3276 5.265C16.6639 2.3572 13.3193 1.08569 11.8573 2.42501C10.3952 3.76432 11.3694 7.20729 14.0331 10.1151C16.6968 13.0229 20.0414 14.2944 21.5034 12.9551Z" fill="#FF6DC6"/>
<path d="M9 24.16V21.08C9 20.49 9.48 20 10.08 20L22.92 20C23.51 20 24 20.48 24 21.08V24.16L9 24.16Z" fill="#FFB02E"/>
<path d="M7 30V25.48C7 24.67 7.67 24 8.48 24L24.52 24C25.33 24 26 24.67 26 25.48V30H7Z" fill="#321B41"/>
</svg>

<svg xmlns="http://www.w3.org/2000/svg" width="32" height="32" fill="none"><path fill="#F70A8D" d="M22.15 20.384H11.14l-.02-16.03c0-1.6 1.02-2.46 2.17-2.46 4.25 0 8.86 6.05 8.86 9.44v9.05Z"/><path fill="#FF6DC6" d="M21.503 12.955c1.462-1.34.488-4.782-2.175-7.69-2.664-2.908-6.009-4.18-7.47-2.84-1.463 1.34-.489 4.782 2.175 7.69 2.664 2.908 6.008 4.18 7.47 2.84Z"/><path fill="#FFB02E" d="M9 24.16v-3.08c0-.59.48-1.08 1.08-1.08h12.84c.59 0 1.08.48 1.08 1.08v3.08H9Z"/><path fill="#321B41" d="M7 30v-4.52c0-.81.67-1.48 1.48-1.48h16.04c.81 0 1.48.67 1.48 1.48V30H7Z"/></svg>
